format-color-marker-cancel.svg

<svg fill="currentColor" viewBox="0 0 24 24"><path d="M16.5 8C14 8 12 10 12 12.5s2 4.5 4.5 4.5 4.5-2 4.5-4.5S19 8 16.5 8m0 7.5c-1.7 0-3-1.3-3-3 0-.6.2-1.1.4-1.5l4.1 4.1c-.4.2-.9.4-1.5.4m2.6-1.5L15 9.9c.4-.3.9-.4 1.5-.4 1.7 0 3 1.3 3 3 0 .6-.2 1.1-.4 1.5m-7-6.3-1.5-1.5 3.3-3.3c.6-.6 1.5-.6 2.1 0L18.2 5c.4.4.5.8.4 1.3-.6-.2-1.3-.3-2-.3-1.8 0-3.3.7-4.5 1.7m-1.6 7.2L9 16.3c-.6.6-1.5.6-2.1 0l-.7.7H2l2.8-2.8c-.6-.6-.6-1.5 0-2.1l4.7-4.7L11.1 9c-.7 1-1.1 2.2-1.1 3.5 0 .8.2 1.6.5 2.4"/></svg>

<svg  viewBox="0 0 24 24" fill="currentColor"><path  d="M16.5 8C14 8 12 10 12 12.5S14 17 16.5 17 21 15 21 12.5 19 8 16.5 8M16.5 15.5C14.8 15.5 13.5 14.2 13.5 12.5C13.5 11.9 13.7 11.4 13.9 11L18 15.1C17.6 15.3 17.1 15.5 16.5 15.5M19.1 14L15 9.9C15.4 9.6 15.9 9.5 16.5 9.5C18.2 9.5 19.5 10.8 19.5 12.5C19.5 13.1 19.3 13.6 19.1 14M12.1 7.7L10.6 6.2L13.9 2.9C14.5 2.3 15.4 2.3 16 2.9L18.2 5C18.6 5.4 18.7 5.8 18.6 6.3C18 6.1 17.3 6 16.6 6C14.8 6 13.3 6.7 12.1 7.7M10.5 14.9L9 16.3C8.4 16.9 7.5 16.9 6.9 16.3L6.2 17H2L4.8 14.2C4.2 13.6 4.2 12.7 4.8 12.1L9.5 7.4L11.1 9C10.4 10 10 11.2 10 12.5C10 13.3 10.2 14.1 10.5 14.9Z"/></svg>
